dist/svg/rca.svg

<svg width="16" height="16" viewBox="0 0 16 16" fill="rgb(34, 34, 34)" xmlns="http://www.w3.org/2000/svg"><title>RCA</title><path d="M13.5 8.50001C13.5 9.88101 12.381 11 11 11C9.619 11 8.5 9.88101 8.5 8.50001C8.5 7.11901 9.619 6.00001 11 6.00001C12.381 6.00001 13.5 7.11901 13.5 8.50001ZM16 8.50001C16 11.261 13.761 13.5 11 13.5C8.415 13.5 6.288 11.538 6.027 9.02201L6.025 9.00101H3.9C3.698 9.86601 2.934 10.501 2.021 10.501C2.014 10.501 2.006 10.501 1.999 10.501H2C0.895 10.501 0 9.60601 0 8.50101C0 7.39601 0.895 6.50101 2 6.50101C2.006 6.50101 2.013 6.50101 2.021 6.50101C2.934 6.50101 3.699 7.13601 3.898 7.98801L3.901 8.00101H6.026C6.289 5.46301 8.416 3.50101 11.001 3.50101C13.762 3.50101 16.001 5.74001 16.001 8.50101L16 8.50001ZM15 8.50001C15 6.29101 13.209 4.50001 11 4.50001C8.791 4.50001 7 6.29101 7 8.50001C7 10.709 8.791 12.5 11 12.5C13.209 12.5 15 10.709 15 8.50001Z" fill="rgb(34, 34, 34)" fill-opacity="1.00"/></svg>

<!-- Generated by Trend Micro Style Portal -->
<svg version="1.1" xmlns="http://www.w3.org/2000/svg" width="16" height="16" viewBox="0 0 16 16">
  <title>rca</title>
  <path fill="rgb(34,34,34)" d="M13.5 8.5c0 1.381-1.119 2.5-2.5 2.5s-2.5-1.119-2.5-2.5c0-1.381 1.119-2.5 2.5-2.5v0c1.381 0 2.5 1.119 2.5 2.5v0zM16 8.5c-0 2.761-2.239 5-5 5-2.585 0-4.712-1.962-4.973-4.478l-0.002-0.021h-2.125c-0.202 0.865-0.966 1.5-1.879 1.5-0.007 0-0.015-0-0.022-0l0.001 0c-1.105 0-2-0.895-2-2s0.895-2 2-2v0c0.006-0 0.013-0 0.021-0 0.913 0 1.678 0.635 1.877 1.487l0.003 0.013h2.125c0.263-2.538 2.39-4.5 4.975-4.5 2.761 0 5 2.239 5 5v0zM15 8.5c0-2.209-1.791-4-4-4s-4 1.791-4 4c0 2.209 1.791 4 4 4v0c2.209 0 4-1.791 4-4v0z"></path>
</svg>
